Dominus_Funeral/scalable/actions/appointment-new.svg

<?xml version="1.0" encoding="UTF-8" standalone="no"?>
<svg
   xmlns:dc="http://purl.org/dc/elements/1.1/"
   xmlns:cc="http://creativecommons.org/ns#"
   xmlns:rdf="http://www.w3.org/1999/02/22-rdf-syntax-ns#"
   xmlns:svg="http://www.w3.org/2000/svg"
   xmlns="http://www.w3.org/2000/svg"
   xmlns:sodipodi="http://sodipodi.sourceforge.net/DTD/sodipodi-0.dtd"
   xmlns:inkscape="http://www.inkscape.org/namespaces/inkscape"
   width="24"
   height="24"
   version="1"
   id="svg8"
   sodipodi:docname="appointment-new.svg"
   inkscape:version="0.92.4 (5da689c313, 2019-01-14)">
  <metadata
     id="metadata14">
    <rdf:RDF>
      <cc:Work
         rdf:about="">
        <dc:format>image/svg+xml</dc:format>
        <dc:type
           rdf:resource="http://purl.org/dc/dcmitype/StillImage" />
        <dc:title></dc:title>
      </cc:Work>
    </rdf:RDF>
  </metadata>
  <defs
     id="defs12" />
  <sodipodi:namedview
     pagecolor="#ffffff"
     bordercolor="#666666"
     borderopacity="1"
     objecttolerance="10"
     gridtolerance="10"
     guidetolerance="10"
     inkscape:pageopacity="0"
     inkscape:pageshadow="2"
     inkscape:window-width="1112"
     inkscape:window-height="480"
     id="namedview10"
     showgrid="false"
     inkscape:zoom="9.8333333"
     inkscape:cx="1.0677966"
     inkscape:cy="12"
     inkscape:window-x="0"
     inkscape:window-y="25"
     inkscape:window-maximized="0"
     inkscape:current-layer="svg8" />
  <g
     id="g6"
     style="fill:#1a1a1a">
    <path
       d="M 11.313,1.005 C 5.633,1.005 1,5.639 1,11.317 1,16.995 5.634,21.63 11.313,21.63 c 0.706,0 1.395,-0.07 2.062,-0.206 V 18.59 a 7.664,7.664 0 0 1 -2.063,0.289 c -4.193,0 -7.562,-3.369 -7.562,-7.563 0,-4.194 3.369,-7.562 7.563,-7.562 a 7.542,7.542 0 0 1 7.273,9.625 h 2.833 c 0.136,-0.667 0.206,-1.356 0.206,-2.063 0,-5.678 -4.634,-10.312 -10.313,-10.312 z m 4.076,5.503 A 0.688,0.688 0 0 0 15.29,6.518 V 6.53 A 0.688,0.688 0 0 0 14.947,6.744 L 11.293,10.386 9.016,8.12 A 0.688,0.688 0 1 0 8.072,9.066 l 2.75,2.75 a 0.688,0.688 0 0 0 0.944,0 L 15.891,7.691 A 0.688,0.688 0 0 0 15.389,6.509 Z"
       font-weight="400"
       overflow="visible"
       style="color:#000000;font-weight:400;line-height:normal;font-family:sans-serif;font-variant-ligatures:normal;font-variant-position:normal;font-variant-caps:normal;font-variant-numeric:normal;font-variant-alternates:normal;font-feature-settings:normal;text-indent:0;text-align:start;text-decoration:none;text-decoration-line:none;text-decoration-style:solid;text-decoration-color:#000000;text-transform:none;text-orientation:mixed;white-space:normal;shape-padding:0;overflow:visible;isolation:auto;mix-blend-mode:normal"
       id="path2"
       inkscape:connector-curvature="0" />
    <path
       d="m 17.5,14.759 v 2.744 h -2.75 v 2.748 h 2.75 v 2.744 h 2.75 V 20.251 H 23 V 17.503 H 20.25 V 14.76 Z"
       overflow="visible"
       style="color:#bebebe;overflow:visible;marker:none"
       id="path4"
       inkscape:connector-curvature="0" />
  </g>
</svg>

<svg xmlns="http://www.w3.org/2000/svg" version="1" viewBox="0 0 24 24"><g fill="#1a1a1a"><path d="M11.3 1C5.64 1 1 5.64 1 11.32a10.33 10.33 0 0 0 12.37 10.1V18.6a7.66 7.66 0 0 1-2.06.29c-4.2 0-7.57-3.37-7.57-7.56s3.37-7.57 7.57-7.57a7.54 7.54 0 0 1 7.27 9.63h2.83A10.31 10.31 0 0 0 11.31 1zm4.08 5.5a.69.69 0 0 0-.1.02v.01a.69.69 0 0 0-.34.21L11.3 10.4 9 8.12a.69.69 0 1 0-.94.95l2.75 2.74a.69.69 0 0 0 .94 0L15.9 7.7a.69.69 0 0 0-.5-1.18z" color="#000" font-weight="400" overflow="visible" style="font-feature-settings:normal;font-variant-alternates:normal;font-variant-caps:normal;font-variant-ligatures:normal;font-variant-numeric:normal;font-variant-position:normal;isolation:auto;mix-blend-mode:normal;shape-padding:0;text-decoration-color:#000;text-decoration-line:none;text-decoration-style:solid;text-indent:0;text-orientation:mixed;text-transform:none" white-space="normal"/><path d="M17.5 14.76v2.74h-2.75v2.75h2.75V23h2.75v-2.75H23V17.5h-2.75v-2.74z" color="#bebebe" overflow="visible"/></g></svg>
